svgs/regular/computer-speaker.svg

<svg xmlns="http://www.w3.org/2000/svg" viewBox="0 0 640 512"><!--! Font Awesome Pro 6.1.1 by @fontawesome - https://fontawesome.com License - https://fontawesome.com/license (Commercial License) Copyright 2022 Fonticons, Inc. --><path d="M576 32h-192c-35.35 0-64 28.65-64 64v320c0 35.35 28.65 64 64 64h192c35.35 0 64-28.65 64-64V96C640 60.65 611.3 32 576 32zM592 416c0 8.822-7.178 16-16 16h-192c-8.822 0-16-7.178-16-16V96c0-8.822 7.178-16 16-16h192c8.822 0 16 7.178 16 16V416zM0 96v224c0 35.35 28.65 64 64 64h224v-48H64c-8.822 0-16-7.178-16-16V96c0-8.822 7.178-16 16-16h225.6C292.7 61.67 301 45.24 312.1 32H64C28.65 32 0 60.65 0 96zM120 432C106.7 432 96 442.7 96 456C96 469.3 106.7 480 120 480h192.1c-11.94-13.24-20.25-29.67-23.35-48H120zM479.1 240c-44.18 0-80 35.82-80 80c0 44.18 35.82 80 80 80c44.18 0 79.1-35.82 79.1-80C559.1 275.8 524.2 240 479.1 240zM479.1 352c-17.64 0-32-14.36-32-32s14.36-32 32-32s32 14.36 32 32S497.6 352 479.1 352zM480 176c17.67 0 32-14.33 32-32s-14.33-32-32-32C462.3 112 448 126.3 448 144S462.3 176 480 176z"/></svg>

<svg xmlns="http://www.w3.org/2000/svg" viewBox="0 0 640 512"><!--! Font Awesome Pro 6.4.2 by @fontawesome - https://fontawesome.com License - https://fontawesome.com/license (Commercial License) Copyright 2023 Fonticons, Inc. --><path d="M312.4 480c-11.8-13.2-20.1-29.7-23.1-48H120c-13.3 0-24 10.7-24 24s10.7 24 24 24H312.4zM64 32C28.7 32 0 60.7 0 96V320c0 35.3 28.7 64 64 64H288V336H64c-8.8 0-16-7.2-16-16V96c0-8.8 7.2-16 16-16H289.3c3.1-18.3 11.3-34.8 23.1-48H64zM576 80c8.8 0 16 7.2 16 16V416c0 8.8-7.2 16-16 16H384c-8.8 0-16-7.2-16-16V96c0-8.8 7.2-16 16-16H576zM384 32c-35.3 0-64 28.7-64 64V416c0 35.3 28.7 64 64 64H576c35.3 0 64-28.7 64-64V96c0-35.3-28.7-64-64-64H384zm96 144a32 32 0 1 0 0-64 32 32 0 1 0 0 64zM448 320a32 32 0 1 1 64 0 32 32 0 1 1 -64 0zm112 0a80 80 0 1 0 -160 0 80 80 0 1 0 160 0z"/></svg>
